images/color/svg/1f4d2.svg

<svg id="emoji" viewBox="0 0 72 72" xmlns="http://www.w3.org/2000/svg">
  <g id="color">
    <path fill="#FCEA2B" stroke="none" d="M60.1001,57.0799c0.5632,0,1.0198-0.4576,1.0198-1.0222V12.0344c0-0.5645-0.4566-1.0222-1.0198-1.0222 h-43.922c-0.5632,0-1.0198,0.4576-1.0198,1.0222V39.163l36.0608,17.917H60.1001z"/>
    <path fill="#FCEA2B" stroke="none" d="M60.1214,56.0122c0.5514,0,0.9985-0.447,0.9985-0.9985v-43.003c0-0.5514-0.447-0.9985-0.9985-0.9985 h-43.003c-0.5514,0-0.9985,0.447-0.9985,0.9985v44.0015H60.1214z"/>
    <path fill="#FCEA2B" stroke="none" stroke-linecap="round" stroke-linejoin="round" stroke-miterlimit="10" stroke-width="2" d="M16.1199,12.0107c0-0.5514,0.447-0.9985,0.9985-0.9985h43.003c0.5514,0,0.9985,0.447,0.9985,0.9985v43.003 c0,0.5514-0.447,0.9985-0.9985,0.9985"/>
    <path fill="#F1B31C" stroke="none" stroke-linecap="round" stroke-linejoin="round" stroke-miterlimit="10" stroke-width="2" d="M55.1336,61h-43.003c-0.5514,0-0.9985-0.447-0.9985-0.9985v-5.8828V25.6668v-3.2316v-5.4367c0-0.5514,0.447-0.9985,0.9985-0.9985 h43.003c0.5514,0,0.9985,0.447,0.9985,0.9985v43.003C56.1321,60.553,55.685,61,55.1336,61z"/>
  </g>
  <g id="hair"/>
  <g id="skin"/>
  <g id="skin-shadow"/>
  <g id="line">
    <path fill="none" stroke="#000000" stroke-linecap="round" stroke-linejoin="round" stroke-miterlimit="10" stroke-width="2" d="M16.1199,12.0107c0-0.5514,0.447-0.9985,0.9985-0.9985h43.003c0.5514,0,0.9985,0.447,0.9985,0.9985v43.003 c0,0.5514-0.447,0.9985-0.9985,0.9985"/>
    <path fill="none" stroke="#000000" stroke-linecap="round" stroke-linejoin="round" stroke-miterlimit="10" stroke-width="2" d="M55.1336,61h-43.003c-0.5514,0-0.9985-0.447-0.9985-0.9985v-5.8828V25.6668v-3.2316v-5.4367c0-0.5514,0.447-0.9985,0.9985-0.9985 h43.003c0.5514,0,0.9985,0.447,0.9985,0.9985v43.003C56.1321,60.553,55.685,61,55.1336,61z"/>
    <line x1="7" x2="15.7116" y1="23.4114" y2="23.4114" fill="none" stroke="#000000" stroke-linecap="round" stroke-linejoin="round" stroke-miterlimit="10" stroke-width="2"/>
    <line x1="7" x2="15.7116" y1="29.4469" y2="29.4469" fill="none" stroke="#000000" stroke-linecap="round" stroke-linejoin="round" stroke-miterlimit="10" stroke-width="2"/>
    <line x1="7" x2="15.7116" y1="35.4823" y2="35.4823" fill="none" stroke="#000000" stroke-linecap="round" stroke-linejoin="round" stroke-miterlimit="10" stroke-width="2"/>
    <line x1="15.7116" x2="7" y1="41.5177" y2="41.5177" fill="none" stroke="#000000" stroke-linecap="round" stroke-linejoin="round" stroke-miterlimit="10" stroke-width="2"/>
    <line x1="7" x2="15.7116" y1="47.5532" y2="47.5532" fill="none" stroke="#000000" stroke-linecap="round" stroke-linejoin="round" stroke-miterlimit="10" stroke-width="2"/>
    <line x1="7" x2="15.7116" y1="53.5886" y2="53.5886" fill="none" stroke="#000000" stroke-linecap="round" stroke-linejoin="round" stroke-miterlimit="10" stroke-width="2"/>
  </g>
</svg>

<svg viewBox="0 0 72 72" xmlns="http://www.w3.org/2000/svg"><path fill="#FCEA2B" d="M60.1 57.08c.563 0 1.02-.458 1.02-1.022V12.034c0-.564-.457-1.022-1.02-1.022H16.178c-.563 0-1.02.458-1.02 1.022v27.129L51.22 57.08h8.88z"/><path fill="#FCEA2B" d="M60.121 56.012a.999.999 0 0 0 .999-.998V12.01a.999.999 0 0 0-.999-.999H17.118a.999.999 0 0 0-.998.999v44.001h44z"/><path fill="#FCEA2B" d="M16.12 12.01c0-.55.447-.998.998-.998h43.003c.552 0 .999.447.999.999v43.003a.999.999 0 0 1-.999.998"/><path fill="#F1B31C" d="M55.134 61H12.13a.999.999 0 0 1-.999-.999V16.998A1 1 0 0 1 12.13 16h43.003c.551 0 .998.447.998.999V60a.999.999 0 0 1-.998.999z"/><g fill="none" stroke="#000" stroke-linecap="round" stroke-linejoin="round" stroke-miterlimit="10" stroke-width="2"><path d="M16.12 12.01c0-.55.447-.998.998-.998h43.003c.552 0 .999.447.999.999v43.003a.999.999 0 0 1-.999.998"/><path d="M55.134 61H12.13a.999.999 0 0 1-.999-.999V16.998A1 1 0 0 1 12.13 16h43.003c.551 0 .998.447.998.999V60a.999.999 0 0 1-.998.999zM7 23.411h8.712M7 29.447h8.712M7 35.482h8.712m0 6.036H7m0 6.035h8.712M7 53.589h8.712"/></g></svg>
